X:1
T:Drent und Herent
C:traditionell
R:polka
A:Herent
Z:abc transcription Simon Wascher
M:2/4
L:1/8
K:G
D |\
G/A/B DG | B/c/d dD | A/B/c DF | G/A/B GD |
G/A/B DG | B/c/d dD | A/B/c DF | GB G :|
|: D |\
DB A/G/A/B/ | G3D | G/A/B A/G/A/B/ | c>B AD |
DA AG | F3D | F/G/A G/F/G/A/ |1 B>A G :|\
                             [2 GB G2 ||
|:\
d>c BB | G/A/B/A/ G2 | G/A/B G/A/B | c>B A2 |
c>B AA | F/G/A/G/ F2 |1 F/G/A F/G/A | B>A G2 :|\
                     [2 F/G/A d/c/B/A/ | GB G :|
%%wordsfont Times-Italic 11pt
W:aus Simon Waschers TradArchiv
